component-icons/svg/listbox.svg

<?xml version="1.0" encoding="utf-8"?>
<!-- Generator: Adobe Illustrator 24.2.3, SVG Export Plug-In . SVG Version: 6.00 Build 0)  -->
<svg version="1.1" id="Layer_1" xmlns="http://www.w3.org/2000/svg" xmlns:xlink="http://www.w3.org/1999/xlink" x="0px" y="0px"
	 width="24px" height="24px" viewBox="0 0 24 24" enable-background="new 0 0 24 24" xml:space="preserve">
<path d="M17,13H8v2h7L17,13z M20,5H8v2h10L20,5z M6,5H4v2h2V5z M20,9H8v2h10L20,9z M0,0v24h20l4-4V0H0z M22,19.2L19.2,22H2V2h20
	V19.2z M6,13H4v2h2V13z M6,9H4v2h2V9z"/>
</svg>

<svg id="Layer_1" data-name="Layer 1" xmlns="http://www.w3.org/2000/svg" viewBox="0 0 24 24">
  <defs>
    <style>
      .cls-1 {
        fill: gray;
      }
    </style>
  </defs>
  <title>listbox</title>
  <path class="cls-1" d="M17,13H8v2h7Zm3-8H8V7H18ZM6,5H4V7H6ZM20,9H8v2H18ZM0,0V24H20l4-4V0ZM22,19.17,19.17,22H2V2H22ZM6,13H4v2H6ZM6,9H4v2H6Z"/>
</svg>
